X: 312
M: 2/4
L: 1/8
K: C
e2Gc | e2Gc | fgef | d2(GB) | d2(GB) | d2(GB) | efde c2 :||: (g>f) |
(fe)(ed) | c2(c'b) | ba^ga | a2(fe) | (ed)(dc) | BdgB | ((3dcB) ((3dcB) | c2 :|


